X:022
T: Pretty Maid Milking the Cow (The)
N: O'Farrell's Pocket Companion v.1 (Sky ed. p.21)
N: "Irish"
M: 9/8
L: 1/8
Q: 150
K: Am
A/B/| cec BdB AGG|cec BdB A2B|cec BdB AGE|GED EAA/B/ A2 :|
B|cde/f/ ged/c/ BGB|c>de efg a2 b/a/|
gec dec BGB|cBA EA^G A2 :|
